(Generated with: DXF2GCODE, Version: Py3.9.2 PyQt5.15.4, Date: $Date: 2022-02-26 15:29 CET $)
(Created from file: C:/Users/teng.li/code/python/cutter/dxf-examples/raw-gb2.dxf)
(Output format description: G-CODE for LinuxCNC)
(Time: Thu Jun 22 13:07:46 2023)
G21 (Units in millimeters)
G90 (Absolute programming)
G64 (Default cutting) G17 (XY plane) G40 (Cancel radius comp.) G49 (Cancel length comp.)
G0 Z  15.000 

(*** LAYER: 0 ***)
T1 M6
S6000

(* SHAPE Nr: 0 *)
G0 X 106.316 Y 120.382
M3 M8
G0 Z   3.000 
F150
G1 Z  -1.500
F400
G2 X 104.316 Y 120.382 I  -1.000 J   0.000
F150
G1 Z  -3.000
F400
G2 X 100.316 Y 126.382 I   1.000 J   5.000
G1 X 100.316 Y 131.382
G2 X 106.316 Y 135.382 I   5.000 J  -1.000
G1 X 121.316 Y 135.382
F150
G1 Z  -1.500
F400
G3 X 120.316 Y 136.382 I  -1.000 J   0.000
F150
G1 Z  -3.000
F400
G1 X 120.316 Y 141.382
G2 X 126.316 Y 145.382 I   5.000 J  -1.000
G1 X 166.316 Y 145.382
G2 X 170.316 Y 139.382 I  -1.000 J  -5.000
G1 X 170.316 Y 114.382
G2 X 164.316 Y 110.382 I  -5.000 J   1.000
G1 X 121.816 Y 110.382
G2 X 120.316 Y 113.882 I   1.000 J   2.500
G1 X 120.316 Y 118.882
G3 X 116.816 Y 120.382 I  -2.500 J  -1.000
G1 X 104.316 Y 120.382
G2 X 106.316 Y 120.382 I   1.000 J   0.000
F150
G1 Z   3.000
G0 Z  15.000 
M9 M5
G0 X   0.000 Y   0.000
M2 (Program end)