(Generated with: DXF2GCODE, Version: Py3.9.2 PyQt5.15.4, Date: $Date: 2022-02-26 15:29 CET $)
(Created from file: C:/Users/teng.li/code/python/cutter/dxf-examples/raw-gb.dxf)
(Output format description: G-CODE for LinuxCNC)
(Time: Thu Jun 22 13:06:24 2023)
G21 (Units in millimeters)
G90 (Absolute programming)
G64 (Default cutting) G17 (XY plane) G40 (Cancel radius comp.) G49 (Cancel length comp.)
G0 Z  15.000 

(*** LAYER: 0 ***)
T1 M6
S6000

(* SHAPE Nr: 0 *)
G0 X 105.177 Y 104.869
M3 M8
G0 Z   3.000 
F150
G1 Z  -1.500
F400
G3 X 104.177 Y 105.869 I  -1.000 J   0.000
F150
G1 Z  -3.000
F400
G1 X 104.177 Y 155.869
G2 X 110.177 Y 159.869 I   5.000 J  -1.000
G1 X 160.177 Y 159.869
G2 X 164.177 Y 153.869 I  -1.000 J  -5.000
G1 X 164.177 Y 133.869
G2 X 158.177 Y 129.869 I  -5.000 J   1.000
G1 X 138.177 Y 129.869
G3 X 134.177 Y 123.869 I   1.000 J  -5.000
G1 X 134.177 Y 103.869
G2 X 128.177 Y  99.869 I  -5.000 J   1.000
G1 X 108.177 Y  99.869
G2 X 104.177 Y 105.869 I   1.000 J   5.000
G2 X 105.177 Y 104.869 I   0.000 J  -1.000
F150
G1 Z   3.000
G0 Z  15.000 
M9 M5
G0 X   0.000 Y   0.000
M2 (Program end)